src/img/HomePage/Crystals/Down4.svg

<?xml version="1.0" encoding="UTF-8"?> <svg xmlns="http://www.w3.org/2000/svg" width="229" height="376" viewBox="0 0 229 376" fill="none"> <path d="M10.0718 23.7863C7.50655 20.4895 0.901264 4.35444 0.742294 0.996814C0.722233 0.573098 5.18369 1.79359 10.6541 3.7094C23.5049 8.20662 32.3477 9.30804 59.8308 9.8374C72.4867 10.0811 82.6101 10.9836 82.9638 11.8998C84.0926 14.8158 112.473 34.469 129.159 43.887C138.119 48.9449 152.464 55.5783 161.036 58.6277C179.314 65.1312 216.283 75.5144 219.808 75.1352C221.154 74.9911 224.104 76.1592 226.364 77.7331C228.624 79.3055 229.615 80.6501 228.564 80.7191C227.514 80.7881 226.175 80.1436 225.587 79.2867C225 78.4298 223.751 77.7651 222.814 77.8095C221.737 77.8605 221.886 78.7446 223.218 80.2032C224.982 82.1353 224.77 82.5426 221.923 82.6774C220.051 82.7661 218.484 82.1164 218.442 81.2337C218.4 80.351 218.162 79.1202 217.911 78.5C217.659 77.8797 207.186 74.4861 194.636 70.9623C164.84 62.5928 147.686 56.0925 128.894 46.0487C113.527 37.8373 90.291 22.2565 84.6592 16.388C83.0081 14.6677 81.1825 13.781 80.603 14.4164C79.0179 16.1612 101.917 35.2695 115.255 43.3324C137.44 56.7432 190.642 76.8942 209.872 79.1703C215.78 79.8686 216.698 80.4959 216.583 83.7555C216.509 85.8308 215.915 87.2342 215.263 86.8726C213.887 86.1094 212.45 88.3361 211.689 92.4048C211.396 93.971 210.505 98.1779 209.709 101.754C208.912 105.331 207.671 111.363 206.95 115.156C206.229 118.949 205.059 122.082 204.348 122.116C202.451 122.205 208.073 97.2909 212.803 84.6471C213.559 82.6263 211.706 81.7972 203.577 80.5156C187.386 77.9669 175.513 74.0152 149.541 62.5354C117.642 48.436 98.7534 36.3812 81.2008 18.9226L74.4499 12.208L54.3206 11.6635C27.5326 10.9388 12.5495 8.55476 6.11104 3.99202C0.964019 0.346154 7.23299 14.8466 19.0371 33.89C45.2034 76.1054 75.935 162.468 77.6455 198.596L78.0675 207.51L92.9334 220.124C126.202 248.351 168.719 305.019 191.763 351.845C195.505 359.451 199.862 365.67 203.342 368.373C206.411 370.756 208.174 372.772 207.26 372.851C202.628 373.253 194.812 363.478 186.862 347.341C182.175 337.831 177.784 329.352 177.102 328.5C176.42 327.648 173.093 322.376 169.71 316.786C166.327 311.195 161.929 304.165 159.937 301.162C157.944 298.16 155.097 293.769 153.61 291.404C141.519 272.181 91.398 218.3 79.9552 212.222C76.0949 210.174 75.7085 209.045 74.9341 197.581C74.4724 190.75 72.6039 178.766 70.7785 170.953C67.2641 155.899 53.5819 111.353 50.8464 106.059C49.9541 104.332 47.3726 97.939 45.1111 91.853C39.2667 76.1275 25.0191 46.8503 18.7163 37.613C15.7716 33.2983 13.3428 29.3499 13.3185 28.8364C13.2942 28.3244 11.8324 26.0515 10.0718 23.7863Z" fill="#FA007A"></path> <path d="M39.9826 40.0227C37.5321 42.1382 37.4732 42.0848 39.3473 39.4449C40.4858 37.8435 41.6903 36.5188 42.0224 36.5031C43.3431 36.4406 42.5567 37.7984 39.9826 40.0227Z" fill="#FA007A"></path> <path d="M214.56 132.49C214.64 126.671 219.329 105.676 223.297 93.3787C225.27 87.2627 227.161 82.5099 227.501 82.8187C227.839 83.1276 226.868 87.2063 225.339 91.8825C223.812 96.5569 220.85 109.323 218.755 120.248C216.66 131.173 211.381 151.501 207.024 165.421C202.109 181.118 198.806 195.018 198.327 202.026C196.717 225.553 201.849 304.979 207.496 343.951C211.504 371.604 211.858 375.916 210.123 375.998C209.129 376.046 208.363 374.814 208.418 373.264C208.785 363.161 206.873 360.472 201.817 363.977C199.3 365.72 198.004 358.82 192.146 312.506C190.423 298.875 188.116 266.346 187.02 240.219L185.028 192.717L189.598 178.971C192.111 171.411 193.965 164.638 193.717 163.921C193.469 163.202 194.154 163.109 195.24 163.711C196.597 164.463 196.842 163.961 196.025 162.1C195.34 160.538 195.508 159.768 196.423 160.275C198.004 161.151 208.617 137.518 210.032 129.973C210.442 127.788 209.856 124.985 208.727 123.744C206.949 121.788 207.145 121.75 210.2 123.457C213.089 125.072 213.526 126.256 212.634 130.035C211.995 132.74 212.163 134.614 213.039 134.573C213.859 134.534 214.543 133.598 214.56 132.49Z" fill="#FA007A"></path> <path d="M203.273 131.382C201.556 134.682 201.152 132.914 202.358 127.373C202.803 125.327 203.29 123.856 203.44 124.105C203.59 124.355 204.838 125.911 206.214 127.564C207.59 129.217 207.833 130.095 206.754 129.515C205.648 128.921 204.13 129.735 203.273 131.382Z" fill="#FA007A"></path> <path d="M196.309 157.255C196.223 155.444 200.135 138.256 200.978 136.733C203.645 131.923 203.563 140.344 200.889 145.9C199.937 147.878 199.227 150.946 199.311 152.716C199.395 154.488 198.762 156.418 197.905 157.005C197.049 157.593 196.33 157.704 196.309 157.255Z" fill="#FA007A"></path> <path fill-rule="evenodd" clip-rule="evenodd" d="M43.3543 198.505C42.999 199.186 42.4634 205.364 42.1632 212.238L41.6175 224.731L48.7128 235.796C52.6146 241.88 55.8376 247.516 55.8757 248.322C56.0048 251.049 63.95 249.426 67.0257 246.044C70.8138 241.878 70.7893 241.564 65.4702 225.791C62.093 215.775 59.4652 211.156 53.6703 205.036C46.2536 197.203 44.584 196.146 43.3543 198.505ZM43.8746 212.551C44.3268 207.222 44.494 201.789 44.2452 200.473C43.9963 199.158 47.1659 201.46 51.292 205.588C57.1082 211.411 59.8598 216.026 63.5511 226.156C66.1685 233.338 68.3484 240.012 68.3945 240.986C68.5108 243.442 65.8673 243.35 65.5303 240.887C64.5674 233.864 56.9715 216.436 52.3104 210.552C49.2674 206.712 46.4512 203.586 46.0532 203.605C45.6536 203.624 46.5956 205.209 48.1483 207.125C54.8992 215.468 57.028 221.573 57.0005 232.506C56.9841 238.444 56.4909 243.314 55.9045 243.327C55.3165 243.341 52.1843 238.601 48.9437 232.793C43.4465 222.94 43.1075 221.587 43.8746 212.551Z" fill="#FA007A"></path> </svg>

<svg xmlns="http://www.w3.org/2000/svg" width="229" height="376" fill="none"><path d="M10.072 23.786C7.507 20.49.902 4.354.742.996c-.02-.423 4.442.798 9.912 2.713 12.85 4.498 21.694 5.599 49.177 6.128 12.656.244 22.78 1.147 23.133 2.063 1.129 2.916 29.509 22.569 46.195 31.987 8.96 5.058 23.305 11.691 31.877 14.74 18.278 6.504 55.247 16.887 58.772 16.508 1.346-.144 4.296 1.024 6.556 2.598 2.26 1.572 3.251 2.917 2.2 2.986-1.05.07-2.389-.575-2.977-1.432-.587-.857-1.836-1.522-2.773-1.478-1.077.052-.928.936.404 2.394 1.764 1.932 1.552 2.34-1.295 2.474-1.872.09-3.439-.56-3.481-1.443-.042-.883-.28-2.114-.531-2.734-.252-.62-10.725-4.014-23.275-7.538-29.796-8.37-46.95-14.87-65.742-24.913-15.367-8.212-38.603-23.793-44.235-29.661-1.65-1.72-3.477-2.607-4.056-1.972-1.585 1.745 21.314 20.854 34.652 28.916 22.185 13.411 75.387 33.562 94.617 35.838 5.908.699 6.826 1.326 6.711 4.585-.074 2.076-.668 3.48-1.32 3.118-1.376-.764-2.813 1.463-3.574 5.532-.293 1.566-1.184 5.773-1.98 9.349a528.88 528.88 0 0 0-2.759 13.402c-.721 3.793-1.891 6.926-2.602 6.96-1.897.089 3.725-24.825 8.455-37.469.756-2.02-1.097-2.85-9.226-4.131-16.191-2.55-28.064-6.5-54.036-17.98-31.899-14.1-50.788-26.155-68.34-43.613l-6.751-6.715-20.13-.544c-26.787-.725-41.77-3.11-48.209-7.672C.964.346 7.233 14.847 19.037 33.89c26.166 42.215 56.898 128.578 58.609 164.706l.421 8.914 14.866 12.614c33.269 28.227 75.786 84.895 98.83 131.721 3.742 7.606 8.099 13.825 11.579 16.528 3.069 2.383 4.832 4.399 3.918 4.478-4.632.402-12.448-9.373-20.398-25.51-4.687-9.51-9.078-17.989-9.76-18.841-.682-.852-4.009-6.124-7.392-11.714-3.383-5.591-7.781-12.621-9.773-15.624a576.343 576.343 0 0 1-6.327-9.758c-12.091-19.223-62.212-73.104-73.655-79.182-3.86-2.048-4.246-3.177-5.02-14.641-.463-6.831-2.331-18.815-4.157-26.628-3.514-15.054-17.196-59.6-19.932-64.894-.892-1.727-3.473-8.12-5.735-14.206-5.844-15.725-20.092-45.003-26.395-54.24-2.944-4.315-5.373-8.263-5.398-8.777-.024-.512-1.486-2.784-3.246-5.05Z" fill="#FA007A"/><path d="M39.983 40.023c-2.45 2.115-2.51 2.062-.636-.578 1.139-1.602 2.343-2.926 2.675-2.942 1.321-.062.535 1.295-2.04 3.52ZM214.56 132.49c.08-5.819 4.769-26.814 8.737-39.111 1.973-6.116 3.864-10.87 4.204-10.56.338.309-.633 4.387-2.162 9.063-1.527 4.675-4.489 17.441-6.584 28.366-2.095 10.925-7.374 31.253-11.731 45.173-4.915 15.697-8.218 29.597-8.697 36.605-1.61 23.527 3.522 102.953 9.169 141.925 4.008 27.653 4.362 31.965 2.627 32.047-.994.048-1.76-1.184-1.705-2.734.367-10.103-1.545-12.792-6.601-9.287-2.517 1.743-3.813-5.157-9.671-51.471-1.723-13.631-4.03-46.16-5.126-72.287l-1.992-47.502 4.57-13.746c2.513-7.56 4.367-14.333 4.119-15.05-.248-.719.437-.812 1.523-.21 1.357.752 1.602.25.785-1.611-.685-1.562-.517-2.332.398-1.825 1.581.876 12.194-22.757 13.609-30.302.41-2.185-.176-4.988-1.305-6.229-1.778-1.956-1.582-1.994 1.473-.287 2.889 1.615 3.326 2.799 2.434 6.578-.639 2.705-.471 4.579.405 4.538.82-.039 1.504-.975 1.521-2.083Z" fill="#FA007A"/><path d="M203.273 131.382c-1.717 3.3-2.121 1.532-.915-4.009.445-2.046.932-3.517 1.082-3.268.15.25 1.398 1.806 2.774 3.459 1.376 1.653 1.619 2.531.54 1.951-1.106-.594-2.624.22-3.481 1.867ZM196.309 157.255c-.086-1.811 3.826-18.999 4.669-20.522 2.667-4.81 2.585 3.611-.089 9.167-.952 1.978-1.662 5.046-1.578 6.816.084 1.772-.549 3.702-1.406 4.289-.856.588-1.575.699-1.596.25Z" fill="#FA007A"/><path fill-rule="evenodd" clip-rule="evenodd" d="M43.354 198.505c-.355.681-.89 6.859-1.19 13.733l-.547 12.493 7.096 11.065c3.902 6.084 7.125 11.72 7.163 12.526.129 2.727 8.074 1.104 11.15-2.278 3.788-4.166 3.763-4.48-1.556-20.253-3.377-10.016-6.005-14.635-11.8-20.755-7.416-7.833-9.086-8.89-10.316-6.531Zm.52 14.046c.453-5.329.62-10.762.371-12.078-.249-1.315 2.92.987 7.047 5.115 5.816 5.823 8.568 10.438 12.26 20.568 2.616 7.182 4.796 13.856 4.842 14.83.117 2.456-2.527 2.364-2.864-.099-.963-7.023-8.559-24.451-13.22-30.335-3.043-3.84-5.859-6.966-6.257-6.947-.4.019.543 1.604 2.095 3.52 6.751 8.343 8.88 14.448 8.852 25.381-.016 5.938-.51 10.808-1.096 10.821-.588.014-3.72-4.726-6.96-10.534-5.498-9.853-5.837-11.206-5.07-20.242Z" fill="#FA007A"/></svg>
